fs/building_retail_toolbox_24_filled.svg

<svg viewBox="0 0 24 24" fill="none" xmlns="http://www.w3.org/2000/svg" height="1em" width="1em">
  <path d="M7.5 11.5V9.5H16.5V11.25H15.75C15.3405 11.25 14.9519 11.3395 14.6028 11.5H7.5ZM18 8.75V11.25H19.25C19.9148 11.25 20.5245 11.4859 21 11.8786V6.73244C21.5978 6.38663 22 5.74028 22 5C22 3.89543 21.1046 3 20 3H4C2.89543 3 2 3.89543 2 5C2 5.74028 2.4022 6.38663 3 6.73244V20.25C3 20.6642 3.33579 21 3.75 21H6V15.75C6 15.3358 6.33579 15 6.75 15H10.75C10.9805 15 11.1868 15.104 11.3243 15.2677C11.6751 14.6497 12.2816 14.1958 13 14.05V14C13 13.6472 13.0664 13.3099 13.1875 13H6.75C6.33579 13 6 12.6642 6 12.25V8.75C6 8.33579 6.33579 8 6.75 8H17.25C17.6642 8 18 8.33579 18 8.75ZM3.5 5C3.5 4.72386 3.72386 4.5 4 4.5H20C20.2761 4.5 20.5 4.72386 20.5 5C20.5 5.27614 20.2761 5.5 20 5.5H4C3.72386 5.5 3.5 5.27614 3.5 5ZM10 16.5V21H7.5V16.5H10ZM14 15H13.5C12.6716 15 12 15.6716 12 16.5V18H14.5V17.75C14.5 17.3358 14.8358 17 15.25 17C15.6642 17 16 17.3358 16 17.75V18H19V17.75C19 17.3358 19.3358 17 19.75 17C20.1642 17 20.5 17.3358 20.5 17.75V18H23V16.5C23 15.6716 22.3284 15 21.5 15H21V14C21 13.0335 20.2165 12.25 19.25 12.25H15.75C14.7835 12.25 14 13.0335 14 14V15ZM15.5 14C15.5 13.8619 15.6119 13.75 15.75 13.75H19.25C19.3881 13.75 19.5 13.8619 19.5 14V15H15.5V14ZM12 21.5V19.5H14.5V20.25C14.5 20.6642 14.8358 21 15.25 21C15.6642 21 16 20.6642 16 20.25V19.5H19V20.25C19 20.6642 19.3358 21 19.75 21C20.1642 21 20.5 20.6642 20.5 20.25V19.5H23V21.5C23 22.3284 22.3284 23 21.5 23H13.5C12.6716 23 12 22.3284 12 21.5Z" fill="#212121"/>
</svg>

<svg viewBox="0 0 24 24" fill="none" xmlns="http://www.w3.org/2000/svg" height="1em" width="1em">
  <path d="M7.5 11.5v-2h9v1.75h-.75c-.41 0-.798.09-1.147.25H7.5ZM18 8.75v2.5h1.25c.665 0 1.274.236 1.75.629V6.732A2 2 0 0 0 20 3H4a2 2 0 0 0-1 3.732V20.25c0 .414.336.75.75.75H6v-5.25a.75.75 0 0 1 .75-.75h4c.23 0 .437.104.574.268A2.503 2.503 0 0 1 13 14.05V14c0-.353.066-.69.188-1H6.75a.75.75 0 0 1-.75-.75v-3.5A.75.75 0 0 1 6.75 8h10.5a.75.75 0 0 1 .75.75ZM3.5 5a.5.5 0 0 1 .5-.5h16a.5.5 0 0 1 0 1H4a.5.5 0 0 1-.5-.5ZM10 16.5V21H7.5v-4.5H10Zm4-1.5h-.5a1.5 1.5 0 0 0-1.5 1.5V18h2.5v-.25a.75.75 0 0 1 1.5 0V18h3v-.25a.75.75 0 0 1 1.5 0V18H23v-1.5a1.5 1.5 0 0 0-1.5-1.5H21v-1a1.75 1.75 0 0 0-1.75-1.75h-3.5A1.75 1.75 0 0 0 14 14v1Zm1.5-1a.25.25 0 0 1 .25-.25h3.5a.25.25 0 0 1 .25.25v1h-4v-1ZM12 21.5v-2h2.5v.75a.75.75 0 0 0 1.5 0v-.75h3v.75a.75.75 0 0 0 1.5 0v-.75H23v2a1.5 1.5 0 0 1-1.5 1.5h-8a1.5 1.5 0 0 1-1.5-1.5Z" fill="#212121"/>
</svg>
